X:755
T:Nine Pint Coggie
R:Reel
B:The Athole Collection
M:C|
L:1/8
K:E Minor
E|B,E E/E/E E2 D>B|ADFD FAAd|B2 AB Beef|dD D/D/D F>EE:|
F|Eeef fedB|defe dBAd|Beed efab|afed e2 df|abaf edef|dBAF ABde|
fde^c dBBc|dD D/D/D F<EE||

